frontend/public/Images/Business/p5_text1.svg

<svg width="43" height="23" viewBox="0 0 43 23" fill="none" xmlns="http://www.w3.org/2000/svg">
<path d="M14.052 11.225C10.802 10.075 8.60195 7.275 8.60195 4.35V3.525H13.527V1.85H1.55195V3.525H6.55195V4.375C6.55195 7.55 4.22695 10.525 0.901953 11.725L1.97695 13.325C4.60195 12.375 6.65195 10.325 7.62695 7.75C8.60195 10.05 10.527 11.925 13.027 12.825L14.052 11.225ZM6.72695 16.275H17.302V20.9H6.72695V16.275ZM4.72695 22.55H19.302V14.65H4.72695V22.55ZM17.227 0.425V6.05H12.802V7.75H17.227V13.55H19.302V0.425H17.227ZM37.4 10.575C34.075 9.475 31.725 6.675 31.725 3.5V1.325H29.675V3.5C29.675 6.8 27.375 9.8 23.975 11.025L25.025 12.625C27.675 11.65 29.75 9.575 30.725 6.975C31.75 9.4 33.8 11.3 36.375 12.2L37.4 10.575ZM29.725 16.1H40.225V20.9H29.725V16.1ZM27.725 22.55H42.225V14.475H27.725V22.55ZM40.175 0.449999V13.2H42.225V0.449999H40.175Z" fill="white"/>
</svg>

<svg width="43" height="23" fill="none" xmlns="http://www.w3.org/2000/svg"><path d="M14.052 11.225c-3.25-1.15-5.45-3.95-5.45-6.875v-.825h4.925V1.85H1.552v1.675h5v.85c0 3.175-2.325 6.15-5.65 7.35l1.075 1.6c2.625-.95 4.675-3 5.65-5.575a9.252 9.252 0 005.4 5.075l1.025-1.6zm-7.325 5.05h10.575V20.9H6.727v-4.625zm-2 6.275h14.575v-7.9H4.727v7.9zM17.227.425V6.05h-4.425v1.7h4.425v5.8h2.075V.425h-2.075zM37.4 10.575c-3.325-1.1-5.675-3.9-5.675-7.075V1.325h-2.05V3.5c0 3.3-2.3 6.3-5.7 7.525l1.05 1.6a9.64 9.64 0 005.7-5.65C31.75 9.4 33.8 11.3 36.375 12.2l1.025-1.625zM29.725 16.1h10.5v4.8h-10.5v-4.8zm-2 6.45h14.5v-8.075h-14.5v8.075zM40.175.45V13.2h2.05V.45h-2.05z" fill="#fff"/></svg>
